X:1
T:Only Believe
T:Only Believe
T:Paul Rader, 1921
T:P. R., 1921
T:PUBLIC DOMAIN
T:PUBLIC DOMAIN
C:Paul Rader, 1921
Z:P. R., 1921
Z:PUBLIC DOMAIN
%%score ( 1 2 ) ( 3 4 )
L:1/8
Q:1/4=110
M:3/4
K:Db
V:1 treble nm="Treble"
V:2 treble 
V:3 bass nm="Bass"
V:4 bass 
V:1
 [FA]2 | [FA]4 [=E=G] [FA] | [DF]4 [DF] [DF] | [DF]4 [D=E] [DF] | [FA]4 [FA]2 | [GB]4 [Ac] [GB] | %6
w: 1.~Fear|not, lit- tle|flock, from the|cross to the|throne, From|death in- to|
w: 2.~Fear|not, lit- tle|flock, He *|go- eth a-|head, Your|Shep- herd sel-|
w: 3.~Fear|not, lit- tle|flock, what- _|ev- er your|lot, He|en- ters all|
 [FA]4 [DF] [DF] | [DF]4 [B,E] [B,D] | [CE]4 | [CA]2 | [FA]2 [=E=G]2 [_E_G]2 | [DF]4 [DF] [DF] | %12
w: life He *|went for His|own;|All|pow- er in|earth, all *|
w: ect- eth the|path you must|tread;|The|wat- ers of|Mar- ah He’ll|
w: rooms, “the *|doors be- ing|shut,”|He|nev- er for-|sakes; He *|
 [DF]2 [DG]2 [DA]2 | [DB]4 [GB]2 | [Gd]2 [Gc]3 [GB] | [FA]4 [GB] [Dd] | [DF]2 [CF]2 [CE]2 | D6 || %18
w: pow- er a-|bove, Is|giv- en to|Him for the|flock of His|love.|
w: sweet- en for|thee, He|drank all the|bit- ter in|Geth- se- ma-|ne.|
w: nev- er is|gone, So|count on His|pres- ence in|dark- ness and|dawn.|
"^Refrain" [FA]3 [=E=G] [FA]2 | [DF]6 | [Fd]3 [Ec] [Fd]2 | [GB]6 | [FA]2 [FA]2 [GB]2 | %23
w: On- ly be-|lieve,|on- ly be-|lieve;|All things are|
w: |||||
w: |||||
 [FA] [DF] [DF]4 | [DF]2 [DE]2 [DF]2 | [CE]6 | [DA]3 [D=G] [DA]2 | [DF]6 | [Fd]3 [Gc] [Ad]2 | %29
w: pos- si- ble,|on- ly be-|lieve;|On- ly be-|lieve,|on- ly be-|
w: ||||||
w: ||||||
 [GB]6 | [Gd]2 [Gc]2 [GB]2 | [FA] [DF] [DF]4 | [DA]2 [DG]3 [CE] | D4 |] %34
w: lieve;|All things are|pos- si- ble,|on- ly be-|lieve.|
w: |||||
w: |||||
V:2
 x2 | x6 | x6 | x6 | x6 | x6 | x6 | x6 | x4 | x2 | x6 | x6 | x6 | x6 | x6 | x6 | x6 | D6 || x6 | %19
 x6 | x6 | x6 | x6 | x6 | x6 | x6 | x6 | x6 | x6 | x6 | x6 | x6 | x6 | D4 |] %34
V:3
 [D,D]2 | [D,D]4 [D,B,] [D,A,] | [D,A,]4 [D,A,] [D,A,] | [D,A,]4 [D,=G,] [D,A,] | [D,D]4 [D,D]2 | %5
 [G,D]4 [G,D] [G,D] | [D,D]4 [D,A,] [D,A,] | [B,,A,]4 [E,=G,] [E,G,] | [A,,A,]4 | [A,,A,]2 | %10
 [D,A,]2 [D,B,]2 [D,B,]2 | [D,A,]4 [D,A,] [D,A,] | [D,A,]2 [E,A,]2 [F,A,]2 | G,4 [G,D]2 | %14
 [G,B,]2 [G,C]3 [G,D] | [D,D]4 [G,D] [G,B,] | A,2 [A,,A,]2 [A,,G,]2 | [D,F,]6 || %18
 [D,D]3 [D,D] [D,D]2 | [D,A,]6 | [D,A,]3 [D,A,] [D,D]2 | [G,D]6 | [D,D]2 [D,D]2 [D,D]2 | %23
 [D,D] [D,A,] [D,A,]4 | [B,,=G,]2 [B,,G,]2 [E,G,]2 | [A,,A,]6 | [D,F,]3 [D,=E,] [D,F,]2 | [D,A,]6 | %28
 [D,A,]3 [E,A,] [F,D]2 | [G,D]6 | [G,B,]2 [G,C]2 [G,D]2 | [D,D] [D,A,] [D,A,]4 | %32
 [A,,F,]2 [A,,E,]3 [A,,G,] | [D,F,]4 |] %34
V:4
 x2 | x6 | x6 | x6 | x6 | x6 | x6 | x6 | x4 | x2 | x6 | x6 | x6 | G,4 z2 | x6 | x6 | A,2 z2 z2 | %17
 x6 || x6 | x6 | x6 | x6 | x6 | x6 | x6 | x6 | x6 | x6 | x6 | x6 | x6 | x6 | x6 | x4 |] %34

